X:302
%%etbk:tnset id:94,pos:1,rep:3x,ant:
%%etbk:wsite http://www.thesession.org/tunes/display/139
%%etbk:color #e6ffe6
%%etbk:pldat 2016-07-21T19:25,2014-05-07T16:22,2014-04-30T16:34,2014-03-21T16:30,2013-11-06T17:40,2013-11-04T18:28,2013-05-07T18:26,2013-05-01T16:05
T: Kerfunken, The
Z: Piano Box Version by Martin Fleischmann
H: Created 2013-02-19 /  Last Modified 2016-07-21
M: 6/8
L: 1/8
R: jig
K: Dmaj
|: "D"!3!F!2!F!3!F !3!FED | !3!FG!5!A !2!Bc!4!d | !1!A2B !2!B!1!A!3!F | "A"!2!EEE EDE |
 "D"!3![F3D] !3!FED | !3!FG!5!A !2!Bc!4!d | !1!A2B !2!B!1!A!3!F |1 "A"!2!EFE "D"!1!D2 E:|2 "A"!2!EFE "D"!1!D!2!F!3!A |
|: "D"!5!!3!d3 !3!def | "G"!2!BBB BAB | "D"!3!d!1!Ad !3!def | "A"!5!fed !4!efe |
"D"!3!d!2!d!3!d !3!def | "G"!2!BBB BAB | "D"!1!A2 !4!d d!1!A!3!F |1 "A"!2!EFE "D"!1!D!2!F!3!A:|2 "A"!2!EFE "D"!1!D2 E |


